X:130
T:Down the Broom
B:Bulmer & Sharpley, Music form Ireland, 1:11
S:Paddy Killoran (fiddle)
Z:Juergen Gier
M:4/4
L:1/8
R:reel
K:ADor
EA (3AAG A2 Bd|egdg egdc|BGGF G2 GE|(3DED B,D GABG|
EAAG ABcd|eg ~g2 egdB|dg (3ggf gaba|gedB BA ~A2:|:
a2 ea ageg|~a2 bg agef|~g2 dg egde|geaf gede|
a2 ea ageg|agbg ageg|dg (3ggf gaba|gedB BA A2:|
